X:1
T:'O Marenariello
T:'O Marenariello
T:Salvatore Gambardella
T:Gennaro Ottaviano
T:Vide ca sbatte ll'onna comm'a stu core ccá; de lacreme te 'nfonne ca 'o faje annammurá... Viene, 'nterr'a 'sta rena nce avimm''a recrijá; che scenne la serena... io po' stóngo a cantá. Vicin'ô mare, facimmo 'ammore, a core a core, pe' nce spassá... Só' marenaro e tiro 'a rezza: ma, p''allerezza, stóngo a murí... 
T:Oje né', io tiro 'a rezza e tu statte a guardá... li pisce, p''a prijezza, comme stanno a zumpá!... E vide, pure 'e stelle tu faje annammurá... ca stu marenariello, tu faje suspirá... Vicin'ô mare, facimmo 'ammore, a core a core, pe' nce spassá... Só' marenaro e tiro 'a rezza: ma, p''allerezza, stóngo a murí... 
T:ISMLP - Pubblico dominio
T:ISMLP - Pubblico dominio
T:ISMLP - Pubblico dominio
T:ISMLP - Pubblico dominio
C:Salvatore Gambardella
Z:Gennaro Ottaviano
Z:ISMLP - Pubblico dominio
%%score 1 { ( 2 5 ) | ( 3 4 ) }
L:1/8
Q:1/4=90
M:6/8
K:Bb
V:1 treble nm="Canto"
V:2 treble nm="Pianoforte"
V:5 treble 
V:3 bass 
V:4 bass 
V:1
"^Andante" z2 z | z6 | z6 | z6 | z6 | z6 | z6 | z6 | z2 z z2 D | d3 c d c |!p! B3 !>!B3- | %11
w: ||||||||Oie\-|né fa prie\- sto,|vie\- ne,|
 B (B A G ^F A | G2) z z2 z | z2 z z2 D | d3 c d c | B3 !>!B3- | B (B A G ^F A | G2) z z2 z || %18
w: _ nun me fa span\- te\-|cà|ca|pu\- rea rez\- za|ve\- ne|_ c'~'a ma\- re stoa me\-|nà.|
[K:G] z6 |:!mf! B F G B2 G | E3 D3 | B ^A B c2 B |({cB)} A3- A z z | c d e (!>!f2 e) | %24
w: |Meh, stien\- ne sti brac\-|cel\- le|a\- iu\- te\- m'a ti\-|rà _|Ca stu ma\- re\- na\-|
 (e2 d G2) z | A B c B2 A | d6- :|"^animato" d2 (B d2 B) | d3!<(! d3-!<)! | d2 (e f2 e) | %30
w: ri\- el\- lo|te vo sem\- peab\- brac\-|cià|_ vi\- ci\- n'~'o|ma\- re|_ fa\- cim\- m'am\-|
 (e2 d) c3- | c2 (A c2 A) | c3 !>!c3- | c2 (d e2 d) |({dc)} B6- | B2!mf! (B d2 B) | d3 !>!d3- | %37
w: mo\- _ re|_ a co\- rea|co\- re|_ pe'\- cé spas\-|sà|_ so ma\- re\-|na\- re|
 d2 (B c2 d) | (!>!f3 e3-) | e2 (e d2 c) | B3 !>!d3 | d2 B{!fermata!A!fermata!B} !fermata!A2 G | %42
w: _ E ti\- ro~'a|rez\- za|_ ma p'al\- le\-|rez\- za|_ ston\- g'a mu\-|
 G6- | G2 z |] %44
w: rì|_|
V:2
 (g2 a) |!mf! (!>!g3 ^f3-) | fcd edc |{/d} c2 B/A/ B3- | B2 z (g2 a) | (g3 ^f3-) | f^fg aba | %7
({ba)} g^FG!ff! ABA |({BA)} G!f! [B,DG]2 z [B,DG]2 | z [B,DG]2 z [CD^F]2 | z [B,DG]2 z [B,EG]2 | %11
 z [B,DG]2 z [CD^F]2 | [B,DB] (ba g^fa | g) [B,DG]2 z [CEG]2 | z [B,DG]2 z [EFc]2 | %15
 z [DFB]2 z [CEG]2 | z [CEG]2 z [CD^F]2 | [B,DG]!pp! (ba g^fa) || %18
[K:G]!mf! g[B,DG][B,DG] z [B,DG][B,DG] |: z [B,DG][B,DG] z [B,DG][B,DG] | %20
 z [B,DG][B,DG] z [B,DG][B,DG] | z [B,DG][B,DG] z [B,D^G][B,DG] | z [B,EA][B,EA] z [B,EA][B,EA] | %23
 [Ac][Bd][ce] ((!>![df]2 [ce])) | ([ce]2 [Bd] [GB]2) z | [CA][DB][Ec] z z2 | d6 :| %27
 [Bd]2 [GB] [Bd]2 [GB] | [Bd]3 d/B/G/D/G/B/ | [Bd]2 ([ce] [df]2 [ce]) | [ce]2 [Bd] [Ac]3- | %31
 [Ac]2 ([FA] [Ac]2 [FA]) | [Ac]3 c/A/F/D/F/A/ | c2 ([Bd] [ce]2 [Bd]) |({[Bd][Ac])} ([GB-]6 | %35
 [GB]2)!mf! ([GB] [Bd]2 [GB]) | [Bd]3 d/B/G/D/G/B/ | d2 ([GB] [Ac]2 [Bd]) | !>![df]3 [ce]3- | %39
 [ce]2 ([ce] [Bd]2 [Ac]) | [GB]3 !>![Bd]3 | [Bd]2 [GB]{AB} [FA]2 !fermata!z | %42
 (B/D/E/F/G/A/ B/c/d/e/=f/^f/ | g2) z |] %44
V:3
 z2 z | z (D,,A,, C,D,^F, | A,2) z [D,^F,C]2 z | z G,,D, G,B,D | G2 z z2 z | z D,E, D,C,A,, | %6
 D,, z[K:treble] c dc z | B2 z[K:bass] ((([D,^F,C]3 | [G,B,])))zD, G,,zD, | G,,zD, D,,zD, | %10
 G,,z(D, G,F,E, | D,)z.D, .D,,z.D, | G,,(D,G,) D,,(D,^F,) | G,,zD, G,,zD, | .G,,z.D, .A,,z.F, | %15
 D,z(D, G,F,E, | D,)zD, D,,zD, | G,,(D,G,) D,,(D,^F,) ||[K:G] [G,,G,] z z [D,,D,] z z |: %19
 [G,,G,] z z [D,,D,] z z | [G,,G,] z z [D,,D,] z z | [G,,G,] z z [D,,D,] z z | %22
 [A,,A,] z z [A,,A,] z z | C,[E,A,][E,A,] C,[E,A,][E,A,] | D,[G,B,][G,B,] D,[G,B,][G,B,] | %25
 D,,D,D, D,,D,C, | B,,C,D, E,F,D, :| (G,,/D,/G,D,) (G,,/D,/G,D,) | (G,,/D,/G,D,) (G,,/D,/G,D,) | %29
 (G,,/D,/G,D,) (G,,/D,/G,D,) | (G,,/D,/G,D,) (G,,/D,/G,D,) | (G,,/D,/F,D,) (G,,/D,/F,D,) | %32
 (G,,/D,/F,D,) (G,,/D,/F,D,) | (G,,/D,/F,D,) (G,,/D,/F,D,) | (G,,/D,/G,D,) (G,,/D,/G,D,) | %35
 (G,,/D,/G,D,) (G,,/D,/G,D,) | (G,,/D,/G,D,) (G,,/D,/G,D,) | (G,,/D,/G,D,) (G,,/D,/G,D,) | %38
 (C,/E,/A,E,) ((C,/E,/A,E,)) | ((C,/E,/A,E,)) ((C,/E,/A,E,)) | ((D,/F,/B,F,)) ((D,/F,/B,F,)) | %41
 ((D,/F,/B,F,)) D,/F,/B, !fermata!z | [G,C]3 z (3.G,.D,.B,, | G,,2 z |] %44
V:4
 x3 | x6 | x6 | x6 | x6 | x6 | x2[K:treble] D2 x2 | G2 z4[K:bass] | x6 | x6 | x6 | x6 | x6 | x6 | %14
 x6 | x6 | x6 | x6 ||[K:G] x6 |: x6 | x6 | x6 | x6 | x6 | x6 | x6 | x6 :| G,,2 x G,,2 x | %28
 G,,2 x G,,2 x | G,,2 x G,,2 x | G,,2 x G,,2 x | G,,2 x G,,2 x | G,,2 x G,,2 x | G,,2 x G,,2 x | %34
 G,,2 x G,,2 x | G,,2 x G,,2 x | G,,2 x G,,2 x | G,,2 x G,,2 x | C,2 x C,2 x | C,2 x C,2 x | %40
 D,2 x D,2 x | D,2 x D,2 x | x6 | x3 |] %44
V:5
 x3 | x6 | x6 | x6 | x6 | x6 | x6 | x6 | x6 | x6 | x6 | x6 | x6 | x6 | x6 | x6 | x6 | x6 || %18
[K:G] x6 |: x6 | x6 | x6 | x6 | x6 | x6 | x6 | (DEF cdc) :| x6 | x6 | x6 | x6 | x6 | x6 | x6 | x6 | %35
 x6 | x6 | x6 | x6 | x6 | x6 | x6 | x6 | x3 |] %44

